X: 135
T: Meng he ba ya er                         (Name) Mnxbajar                                (Name)
L: 1/8
M: 2/4
K: C
EG2G [I:setbarnb 1]| 
A2d e | 
c3d | 
E G G G | 
A2d e | 
c4 | 
AG2c | 
G c A G | 
ED2E | 
G2A2 | 
d e c A | 
GE2D | 
C4- | 
C3z |]

@@@ Tune index: 8803
